_includes/icons/color-windows-10.svg

<svg fill="#666" height="50" viewBox="0 0 48 48" width="50" xmlns="http://www.w3.org/2000/svg"><g fill="#00b0ff"><path d="m20 25.026-14.989-.026.001 12.744 14.988 2.074z"/><path d="m22 25.03v15.065l20.995 2.905.005-17.934z"/><path d="m20 8.256-15 2.124.014 12.62h14.986z"/><path d="m22 7.973v15.027h20.995v-18z"/></g></svg>

<svg xmlns="http://www.w3.org/2000/svg" viewBox="0 0 48 48" width="50" height="50" fill="#666"><path fill="#00b0ff" d="M20 25.026L5.011 25 5.012 37.744 20 39.818z"/><path fill="#00b0ff" d="M22 25.03L22 40.095 42.995 43 43 25.066z"/><path fill="#00b0ff" d="M20 8.256L5 10.38 5.014 23 20 23z"/><path fill="#00b0ff" d="M22 7.973L22 23 42.995 23 42.995 5z"/></svg>
